src/assets/svg/kat-buiten.svg

<?xml version="1.0" encoding="UTF-8" standalone="no"?>
<svg width="90px" height="90px" viewBox="0 0 90 90" version="1.1" xmlns="http://www.w3.org/2000/svg" xmlns:xlink="http://www.w3.org/1999/xlink" xmlns:sketch="http://www.bohemiancoding.com/sketch/ns">
    <!-- Generator: Sketch 3.5.1 (25234) - http://www.bohemiancoding.com/sketch -->
    <title>kat-buiten</title>
    <desc>Created with Sketch.</desc>
    <defs>
        <path id="path-1" d="M0,0 L90.806,0 L90.806,94 L0,94 L0,0 Z"></path>
        <path id="path-3" d="M45,0 C20.147,0 0,20.147 0,45 L0,45 C0,69.853 20.147,90 45,90 L45,90 C69.853,90 90,69.853 90,45 L90,45 C90,20.147 69.853,0 45,0"></path>
        <path id="path-5" d="M45,0 C20.147,0 0,20.147 0,45 L0,45 C0,69.853 20.147,90 45,90 L45,90 C69.853,90 90,69.853 90,45 L90,45 C90,20.147 69.853,0 45,0 L45,0 Z"></path>
    </defs>
    <g id="Page-1" stroke="none" stroke-width="1" fill="none" fill-rule="evenodd" sketch:type="MSPage">
        <g id="kat-buiten" sketch:type="MSArtboardGroup">
            <g id="Group-10" sketch:type="MSLayerGroup">
                <mask id="mask-2" sketch:name="Clip 4" fill="white">
                    <use xlink:href="#path-1"></use>
                </mask>
                <g id="Clip-4"></g>
                <path d="M66.258,75 L61.548,75 L61.548,51.033 L66.258,51.033 L66.258,75 Z" id="Fill-3" fill="#AA8566" sketch:type="MSShapeGroup" mask="url(#mask-2)"></path>
                <path d="M66.258,75 L61.548,75 L61.548,51.033 L66.258,51.033 L66.258,75 Z" id="Stroke-5" stroke="#383128" stroke-width="2" stroke-linecap="round" stroke-linejoin="round" sketch:type="MSShapeGroup" mask="url(#mask-2)"></path>
                <path d="M57.8388,44.3524 L57.8388,44.3524 C56.3448,45.4144 54.2578,44.4954 54.0338,42.6764" id="Stroke-6" stroke="#2B3F14" stroke-width="2" stroke-linecap="round" stroke-linejoin="round" sketch:type="MSShapeGroup" mask="url(#mask-2)"></path>
                <path d="M70.4891,26.313 L70.4891,26.313 C70.1941,28.122 68.0731,28.959 66.6211,27.84" id="Stroke-7" stroke="#2B3F14" stroke-width="2" stroke-linecap="round" stroke-linejoin="round" sketch:type="MSShapeGroup" mask="url(#mask-2)"></path>
                <path d="M80.3121,32.6864 L80.3121,32.6864 C80.9381,34.4094 79.4951,36.1754 77.6821,35.9074" id="Stroke-8" stroke="#2B3F14" stroke-width="2" stroke-linecap="round" stroke-linejoin="round" sketch:type="MSShapeGroup" mask="url(#mask-2)"></path>
                <path d="M48.193,25.0078 L48.193,25.0078 C48.541,23.2078 50.685,22.4328 52.104,23.5938" id="Stroke-9" stroke="#2B3F14" stroke-width="2" stroke-linecap="round" stroke-linejoin="round" sketch:type="MSShapeGroup" mask="url(#mask-2)"></path>
            </g>
            <g id="Group-46" sketch:type="MSLayerGroup">
                <g id="Group-13">
                    <mask id="mask-4" sketch:name="Clip 12" fill="white">
                        <use xlink:href="#path-3"></use>
                    </mask>
                    <g id="Clip-12"></g>
                    <path d="M65.7628,2.8715 L65.7628,2.8715 C66.9368,1.4635 69.1888,1.8195 69.8698,3.5215 C70.4318,4.9255 72.1278,5.4765 73.4068,4.6715 C74.9588,3.6945 76.9898,4.7295 77.1118,6.5595 C77.2128,8.0675 78.6558,9.1155 80.1208,8.7455 C81.8978,8.2955 83.5108,9.9085 83.0618,11.6855 L83.0618,11.6855 C82.6908,13.1505 83.7388,14.5935 85.2478,14.6945 C87.0768,14.8165 88.1118,16.8475 87.1348,18.3995 C86.3298,19.6785 86.8808,21.3745 88.2848,21.9365 C89.9868,22.6175 90.3428,24.8695 88.9348,26.0435 C87.7738,27.0115 87.7738,28.7945 88.9348,29.7625 C90.3428,30.9365 89.9868,33.1885 88.2848,33.8695 C86.8808,34.4315 86.3298,36.1275 87.1348,37.4075 C88.1118,38.9585 87.0768,40.9905 85.2478,41.1125 C83.7388,41.2125 82.6908,42.6555 83.0618,44.1205 C83.5108,45.8985 81.8978,47.5105 80.1208,47.0615 C78.6558,46.6905 77.2128,47.7395 77.1118,49.2475 C76.9898,51.0765 74.9588,52.1115 73.4068,51.1355 C72.1278,50.3295 70.4318,50.8815 69.8698,52.2845 C69.1888,53.9865 66.9368,54.3435 65.7628,52.9355 C64.7948,51.7735 63.0118,51.7735 62.0438,52.9355 C60.8698,54.3435 58.6178,53.9865 57.9368,52.2845 C57.3748,50.8815 55.6788,50.3295 54.3998,51.1355 C52.8478,52.1115 50.8158,51.0765 50.6948,49.2475 C50.5938,47.7395 49.1508,46.6905 47.6858,47.0615 C45.9078,47.5105 44.2958,45.8985 44.7448,44.1205 C45.1158,42.6555 44.0678,41.2125 42.5588,41.1125 C40.7298,40.9905 39.6948,38.9585 40.6708,37.4075 C41.4768,36.1275 40.9258,34.4315 39.5218,33.8695 C37.8198,33.1885 37.4628,30.9365 38.8718,29.7625 C40.0328,28.7945 40.0328,27.0115 38.8718,26.0435 C37.4628,24.8695 37.8198,22.6175 39.5218,21.9365 C40.9258,21.3745 41.4768,19.6785 40.6708,18.3995 C39.6948,16.8475 40.7298,14.8165 42.5588,14.6945 C44.0678,14.5935 45.1158,13.1505 44.7448,11.6855 L44.7448,11.6855 C44.2958,9.9085 45.9078,8.2955 47.6858,8.7455 C49.1508,9.1155 50.5938,8.0675 50.6948,6.5595 C50.8158,4.7295 52.8478,3.6945 54.3998,4.6715 C55.6788,5.4765 57.3748,4.9255 57.9368,3.5215 C58.6178,1.8195 60.8698,1.4635 62.0438,2.8715 C63.0118,4.0325 64.7948,4.0325 65.7628,2.8715" id="Fill-11" fill="#76D03B" sketch:type="MSShapeGroup" mask="url(#mask-4)"></path>
                </g>
                <g id="Group-16">
                    <mask id="mask-6" sketch:name="Clip 15" fill="white">
                        <use xlink:href="#path-5"></use>
                    </mask>
                    <g id="Clip-15"></g>
                    <path d="M65.7628,2.8715 L65.7628,2.8715 C66.9368,1.4635 69.1888,1.8195 69.8698,3.5215 C70.4318,4.9255 72.1278,5.4765 73.4068,4.6715 C74.9588,3.6945 76.9898,4.7295 77.1118,6.5595 C77.2128,8.0675 78.6558,9.1155 80.1208,8.7455 C81.8978,8.2955 83.5108,9.9085 83.0618,11.6855 L83.0618,11.6855 C82.6908,13.1505 83.7388,14.5935 85.2478,14.6945 C87.0768,14.8165 88.1118,16.8475 87.1348,18.3995 C86.3298,19.6785 86.8808,21.3745 88.2848,21.9365 C89.9868,22.6175 90.3428,24.8695 88.9348,26.0435 C87.7738,27.0115 87.7738,28.7945 88.9348,29.7625 C90.3428,30.9365 89.9868,33.1885 88.2848,33.8695 C86.8808,34.4315 86.3298,36.1275 87.1348,37.4075 C88.1118,38.9585 87.0768,40.9905 85.2478,41.1125 C83.7388,41.2125 82.6908,42.6555 83.0618,44.1205 C83.5108,45.8985 81.8978,47.5105 80.1208,47.0615 C78.6558,46.6905 77.2128,47.7395 77.1118,49.2475 C76.9898,51.0765 74.9588,52.1115 73.4068,51.1355 C72.1278,50.3295 70.4318,50.8815 69.8698,52.2845 C69.1888,53.9865 66.9368,54.3435 65.7628,52.9355 C64.7948,51.7735 63.0118,51.7735 62.0438,52.9355 C60.8698,54.3435 58.6178,53.9865 57.9368,52.2845 C57.3748,50.8815 55.6788,50.3295 54.3998,51.1355 C52.8478,52.1115 50.8158,51.0765 50.6948,49.2475 C50.5938,47.7395 49.1508,46.6905 47.6858,47.0615 C45.9078,47.5105 44.2958,45.8985 44.7448,44.1205 C45.1158,42.6555 44.0678,41.2125 42.5588,41.1125 C40.7298,40.9905 39.6948,38.9585 40.6708,37.4075 C41.4768,36.1275 40.9258,34.4315 39.5218,33.8695 C37.8198,33.1885 37.4628,30.9365 38.8718,29.7625 C40.0328,28.7945 40.0328,27.0115 38.8718,26.0435 C37.4628,24.8695 37.8198,22.6175 39.5218,21.9365 C40.9258,21.3745 41.4768,19.6785 40.6708,18.3995 C39.6948,16.8475 40.7298,14.8165 42.5588,14.6945 C44.0678,14.5935 45.1158,13.1505 44.7448,11.6855 L44.7448,11.6855 C44.2958,9.9085 45.9078,8.2955 47.6858,8.7455 C49.1508,9.1155 50.5938,8.0675 50.6948,6.5595 C50.8158,4.7295 52.8478,3.6945 54.3998,4.6715 C55.6788,5.4765 57.3748,4.9255 57.9368,3.5215 C58.6178,1.8195 60.8698,1.4635 62.0438,2.8715 C63.0118,4.0325 64.7948,4.0325 65.7628,2.8715 L65.7628,2.8715 Z" id="Stroke-14" stroke="#2B3F14" stroke-width="2" stroke-linecap="round" stroke-linejoin="round" sketch:type="MSShapeGroup" mask="url(#mask-6)"></path>
                </g>
                <g id="Group-19" transform="translate(27.000000, 67.000000)" fill="#231917" sketch:type="MSShapeGroup">
                    <path d="M28.8693,0.6307 L6.4183,0.9257 C6.4183,0.9257 4.6583,11.4147 3.3213,17.6947 C2.5563,21.2847 1.5213,24.7167 0.7743,26.9997 L35.3203,26.9997 C32.0383,17.8977 28.8693,0.6307 28.8693,0.6307" id="Fill-17"></path>
                </g>
                <g id="Group-22" transform="translate(24.000000, 35.000000)" fill="#FFFFFF" sketch:type="MSShapeGroup">
                    <path d="M31.9678,33.5169 C42.6028,29.8739 39.2548,18.9429 38.7618,18.3529 C38.2698,17.7619 39.1558,13.1339 39.6488,10.3759 C40.1408,7.6189 40.2398,2.1049 38.7618,1.5139 C37.2848,0.9229 30.4908,8.0129 29.9988,7.9149 C29.5058,7.8159 23.6958,6.6349 20.4468,6.6349 C17.1968,6.6349 10.5998,8.2099 10.5998,8.2099 C9.9108,8.4069 5.6758,3.4839 4.0018,1.6129 C2.3278,-0.2581 0.9498,1.2189 0.1618,6.0439 C-0.6262,10.8689 1.9338,17.5649 2.2298,18.3529 C2.5248,19.1399 1.0478,19.5339 1.5408,25.1469 C2.0328,30.7599 9.1228,33.3199 9.1228,33.3199 C10.1708,46.9499 9.3928,55.0019 8.7088,58.9999 L32.5788,58.9999 C31.2008,49.9329 31.9678,33.5169 31.9678,33.5169" id="Fill-20"></path>
                </g>
                <path d="M44.701,61.969 L44.391,61.969 L44.391,59.36 L44.701,59.36 L44.701,61.969 Z" id="Fill-23" fill="#231917" sketch:type="MSShapeGroup"></path>
                <path d="M44.5851,61.7417 C44.5851,61.7417 39.7851,64.2777 40.2461,64.9087 C40.7071,65.5397 44.5851,61.7417 44.5851,61.7417" id="Fill-25" fill="#231917" sketch:type="MSShapeGroup"></path>
                <path d="M44.6788,61.8156 C44.6788,61.8156 48.5378,65.6326 49.0018,65.0036 C49.4658,64.3756 44.6788,61.8156 44.6788,61.8156" id="Fill-26" fill="#231917" sketch:type="MSShapeGroup"></path>
                <path d="M48.816,64.9697 L44.574,61.9807 L40.577,64.8697 L40.395,64.6187 L44.571,61.5997 L48.995,64.7157 L48.816,64.9697 Z" id="Fill-27" fill="#231917" sketch:type="MSShapeGroup"></path>
                <path d="M44.561,60.0048 C44.561,60.0048 41.573,59.4318 41.985,58.1278 C42.309,57.1008 44.545,57.3398 44.545,57.3398 C44.545,57.3398 46.909,57.1918 47.007,58.1278 C47.105,59.0568 45.743,59.6108 44.561,60.0048" id="Fill-28" fill="#F49187" sketch:type="MSShapeGroup"></path>
                <path d="M62.5352,35.8493 C61.0582,35.2583 54.1322,43.0053 53.6402,42.9063 C53.1472,42.8083 47.6962,41.6343 44.4472,41.6343 C41.1972,41.6343 34.6002,43.2103 34.6002,43.2103 C33.9102,43.4073 29.6762,38.4833 28.0022,36.6123 C26.3282,34.7413 24.9492,36.2183 24.1622,41.0433 C23.3742,45.8683 25.9342,52.5643 26.2292,53.3523 C26.5252,54.1403 25.0482,54.5343 25.5402,60.1473 C25.6272,61.1323 25.9192,62.0213 26.3382,62.8213 C27.4942,62.2933 28.6882,62.0853 29.5532,61.6083 C34.6542,60.1573 37.5072,58.0423 38.7152,56.9583 C40.1302,55.9583 40.9072,54.2923 41.2952,51.9743 C42.2942,46.0193 45.7242,44.9403 46.6132,49.3153 C47.5582,53.9703 48.2272,56.7143 50.9432,57.8213 C52.8202,58.9853 56.1572,60.6823 60.6732,61.5063 C60.6732,61.5063 60.6702,61.5043 60.6702,61.5033 C61.4092,61.6953 62.2022,61.7773 63.0642,61.8663 C64.4002,57.8453 63.0602,53.7093 62.7622,53.3523 C62.2702,52.7613 63.1562,48.1333 63.6482,45.3763 C64.1412,42.6193 64.0122,36.4403 62.5352,35.8493" id="Fill-29" fill="#231917" sketch:type="MSShapeGroup"></path>
                <path d="M39.6217,52.9586 C39.6217,54.8616 38.0787,56.4046 36.1757,56.4046 C34.2717,56.4046 32.7287,54.8616 32.7287,52.9586 C32.7287,51.0556 34.2717,49.5126 36.1757,49.5126 C38.0787,49.5126 39.6217,51.0556 39.6217,52.9586" id="Fill-30" fill="#EBB744" sketch:type="MSShapeGroup"></path>
                <path d="M38.8339,52.9586 C38.8339,54.4266 37.6439,55.6176 36.1749,55.6176 C34.7069,55.6176 33.5169,54.4266 33.5169,52.9586 C33.5169,51.4906 34.7069,50.2996 36.1749,50.2996 C37.6439,50.2996 38.8339,51.4906 38.8339,52.9586" id="Fill-31" fill="#231917" sketch:type="MSShapeGroup"></path>
                <path d="M55.9678,52.9586 C55.9678,54.8616 54.4248,56.4046 52.5218,56.4046 C50.6178,56.4046 49.0748,54.8616 49.0748,52.9586 C49.0748,51.0556 50.6178,49.5126 52.5218,49.5126 C54.4248,49.5126 55.9678,51.0556 55.9678,52.9586" id="Fill-32" fill="#EBB744" sketch:type="MSShapeGroup"></path>
                <path d="M55.18,52.9586 C55.18,54.4266 53.99,55.6176 52.521,55.6176 C51.053,55.6176 49.863,54.4266 49.863,52.9586 C49.863,51.4906 51.053,50.2996 52.521,50.2996 C53.99,50.2996 55.18,51.4906 55.18,52.9586" id="Fill-33" fill="#231917" sketch:type="MSShapeGroup"></path>
                <path d="M55.6938,44.234 C55.6938,44.234 60.3828,37.505 61.6258,37.537 C63.6628,37.589 62.2958,50.549 61.0518,49.209 C61.0518,49.209 57.3198,44.999 55.6938,44.234" id="Fill-34" fill="#F49187" sketch:type="MSShapeGroup"></path>
                <path d="M32.982,44.4506 C32.982,44.4506 27.707,38.1876 26.624,38.2866 C25.54,38.3846 25.336,46.0186 26.023,48.4696 C26.581,50.4626 27.197,51.0206 27.591,50.5276 C27.985,50.0356 32.982,44.4506 32.982,44.4506" id="Fill-35" fill="#F49187" sketch:type="MSShapeGroup"></path>
                <path d="M49.0629,45.0328 C49.0589,44.9718 48.6599,38.9258 49.8309,34.4438 L49.9809,34.4838 C48.8169,38.9398 49.2139,44.9618 49.2179,45.0218 L49.0629,45.0328 Z" id="Fill-36" fill="#FFFFFF" sketch:type="MSShapeGroup"></path>
                <path d="M50.703,45.3388 L50.548,45.3268 C50.554,45.2498 51.2,37.5938 56.454,32.6318 L56.56,32.7448 C51.351,37.6648 50.709,45.2628 50.703,45.3388" id="Fill-37" fill="#FFFFFF" sketch:type="MSShapeGroup"></path>
                <path d="M38.7938,45.188 L38.6388,45.184 C38.6398,45.132 38.7608,39.994 36.7328,34.922 L36.8768,34.865 C38.9178,39.967 38.7948,45.136 38.7938,45.188" id="Fill-38" fill="#FFFFFF" sketch:type="MSShapeGroup"></path>
                <path d="M37.1862,45.29 C37.1742,45.209 35.8852,37.138 31.2112,32.948 L31.3142,32.832 C36.0302,37.06 37.3272,45.185 37.3392,45.266 L37.1862,45.29 Z" id="Fill-39" fill="#FFFFFF" sketch:type="MSShapeGroup"></path>
                <path d="M50.8283,61.2383 L50.7793,61.0913 C50.9333,61.0393 66.2993,55.9603 75.4583,57.1723 L75.4373,57.3263 C66.3123,56.1183 50.9823,61.1873 50.8283,61.2383" id="Fill-40" fill="#FFFFFF" sketch:type="MSShapeGroup"></path>
                <path d="M75.4487,64.2261 C66.1637,61.0341 53.2627,62.4511 53.1337,62.4651 L53.1167,62.3111 C53.2457,62.2961 66.1807,60.8761 75.4987,64.0791 L75.4487,64.2261 Z" id="Fill-41" fill="#FFFFFF" sketch:type="MSShapeGroup"></path>
                <path d="M52.8369,61.5537 L52.8009,61.4027 C52.9319,61.3717 66.0309,58.2917 75.9999,60.4117 L75.9679,60.5637 C66.0339,58.4507 52.9679,61.5227 52.8369,61.5537" id="Fill-42" fill="#FFFFFF" sketch:type="MSShapeGroup"></path>
                <path d="M38.3666,61.2383 C38.2126,61.1873 22.8806,56.1173 13.7576,57.3263 L13.7366,57.1723 C22.8956,55.9603 38.2616,61.0393 38.4156,61.0913 L38.3666,61.2383 Z" id="Fill-43" fill="#FFFFFF" sketch:type="MSShapeGroup"></path>
                <path d="M13.7462,64.2261 L13.6962,64.0791 C23.0142,60.8761 35.9492,62.2961 36.0782,62.3111 L36.0612,62.4651 C35.9312,62.4511 23.0312,61.0341 13.7462,64.2261" id="Fill-44" fill="#FFFFFF" sketch:type="MSShapeGroup"></path>
                <path d="M36.3499,61.618 C36.2119,61.585 22.4739,58.355 12.0299,60.578 L11.9969,60.426 C22.4759,58.196 36.2479,61.434 36.3859,61.467 L36.3499,61.618 Z" id="Fill-45" fill="#FFFFFF" sketch:type="MSShapeGroup"></path>
            </g>
        </g>
    </g>
</svg>

<svg height="90" viewBox="0 0 90 90" width="90" xmlns="http://www.w3.org/2000/svg" xmlns:xlink="http://www.w3.org/1999/xlink"><mask id="a" fill="#fff"><path d="m0 0h90.806v94h-90.806z" fill="none"/></mask><mask id="b" fill="#fff"><path d="m45 0c-24.853 0-45 20.147-45 45 0 24.853 20.147 45 45 45 24.853 0 45-20.147 45-45 0-24.853-20.147-45-45-45" fill="none"/></mask><mask id="c" fill="#fff"><path d="m45 0c-24.853 0-45 20.147-45 45 0 24.853 20.147 45 45 45 24.853 0 45-20.147 45-45 0-24.853-20.147-45-45-45z" fill="none"/></mask><g fill="none" fill-rule="evenodd"><path d="m66.258 75h-4.71v-23.967h4.71z" fill="#aa8566" mask="url(#a)"/><path d="m66.258 75h-4.71v-23.967h4.71z" mask="url(#a)" stroke="#383128" stroke-linecap="round" stroke-linejoin="round" stroke-width="2"/><path d="m57.8388 44.3524c-1.494 1.062-3.581.143-3.805-1.676" mask="url(#a)" stroke="#2b3f14" stroke-linecap="round" stroke-linejoin="round" stroke-width="2"/><path d="m70.4891 26.313c-.295 1.809-2.416 2.646-3.868 1.527" mask="url(#a)" stroke="#2b3f14" stroke-linecap="round" stroke-linejoin="round" stroke-width="2"/><path d="m80.3121 32.6864c.626 1.723-.817 3.489-2.63 3.221" mask="url(#a)" stroke="#2b3f14" stroke-linecap="round" stroke-linejoin="round" stroke-width="2"/><path d="m48.193 25.0078c.348-1.8 2.492-2.575 3.911-1.414" mask="url(#a)" stroke="#2b3f14" stroke-linecap="round" stroke-linejoin="round" stroke-width="2"/><path d="m65.7628 2.8715c1.174-1.408 3.426-1.052 4.107.65.562 1.404 2.258 1.955 3.537 1.15 1.552-.977 3.583.058 3.705 1.888.101 1.508 1.544 2.556 3.009 2.186 1.777-.45 3.39 1.163 2.941 2.94-.371 1.465.677 2.908 2.186 3.009 1.829.122 2.864 2.153 1.887 3.705-.805 1.279-.254 2.975 1.15 3.537 1.702.681 2.058 2.933.65 4.107-1.161.968-1.161 2.751 0 3.719 1.408 1.174 1.052 3.426-.65 4.107-1.404.562-1.955 2.258-1.15 3.538.977 1.551-.058 3.583-1.887 3.705-1.509.1-2.557 1.543-2.186 3.008.449 1.778-1.164 3.39-2.941 2.941-1.465-.371-2.908.678-3.009 2.186-.122 1.829-2.153 2.864-3.705 1.888-1.279-.806-2.975-.254-3.537 1.149-.681 1.702-2.933 2.059-4.107.651-.968-1.162-2.751-1.162-3.719 0-1.174 1.408-3.426 1.051-4.107-.651-.562-1.403-2.258-1.955-3.537-1.149-1.552.976-3.584-.059-3.705-1.888-.101-1.508-1.544-2.557-3.009-2.186-1.778.449-3.39-1.163-2.941-2.941.371-1.465-.677-2.908-2.186-3.008-1.829-.122-2.864-2.154-1.888-3.705.806-1.28.255-2.976-1.149-3.538-1.702-.681-2.059-2.933-.65-4.107 1.161-.968 1.161-2.751 0-3.719-1.409-1.174-1.052-3.426.65-4.107 1.404-.562 1.955-2.258 1.149-3.537-.976-1.552.059-3.583 1.888-3.705 1.509-.101 2.557-1.544 2.186-3.009-.449-1.777 1.163-3.39 2.941-2.94 1.465.37 2.908-.678 3.009-2.186.121-1.83 2.153-2.865 3.705-1.888 1.279.805 2.975.254 3.537-1.15.681-1.702 2.933-2.058 4.107-.65.968 1.161 2.751 1.161 3.719 0" fill="#76d03b" mask="url(#b)"/><path d="m65.7628 2.8715c1.174-1.408 3.426-1.052 4.107.65.562 1.404 2.258 1.955 3.537 1.15 1.552-.977 3.583.058 3.705 1.888.101 1.508 1.544 2.556 3.009 2.186 1.777-.45 3.39 1.163 2.941 2.94-.371 1.465.677 2.908 2.186 3.009 1.829.122 2.864 2.153 1.887 3.705-.805 1.279-.254 2.975 1.15 3.537 1.702.681 2.058 2.933.65 4.107-1.161.968-1.161 2.751 0 3.719 1.408 1.174 1.052 3.426-.65 4.107-1.404.562-1.955 2.258-1.15 3.538.977 1.551-.058 3.583-1.887 3.705-1.509.1-2.557 1.543-2.186 3.008.449 1.778-1.164 3.39-2.941 2.941-1.465-.371-2.908.678-3.009 2.186-.122 1.829-2.153 2.864-3.705 1.888-1.279-.806-2.975-.254-3.537 1.149-.681 1.702-2.933 2.059-4.107.651-.968-1.162-2.751-1.162-3.719 0-1.174 1.408-3.426 1.051-4.107-.651-.562-1.403-2.258-1.955-3.537-1.149-1.552.976-3.584-.059-3.705-1.888-.101-1.508-1.544-2.557-3.009-2.186-1.778.449-3.39-1.163-2.941-2.941.371-1.465-.677-2.908-2.186-3.008-1.829-.122-2.864-2.154-1.888-3.705.806-1.28.255-2.976-1.149-3.538-1.702-.681-2.059-2.933-.65-4.107 1.161-.968 1.161-2.751 0-3.719-1.409-1.174-1.052-3.426.65-4.107 1.404-.562 1.955-2.258 1.149-3.537-.976-1.552.059-3.583 1.888-3.705 1.509-.101 2.557-1.544 2.186-3.009-.449-1.777 1.163-3.39 2.941-2.94 1.465.37 2.908-.678 3.009-2.186.121-1.83 2.153-2.865 3.705-1.888 1.279.805 2.975.254 3.537-1.15.681-1.702 2.933-2.058 4.107-.65.968 1.161 2.751 1.161 3.719 0z" mask="url(#c)" stroke="#2b3f14" stroke-linecap="round" stroke-linejoin="round" stroke-width="2"/><path d="m28.8693.6307-22.451.295s-1.76 10.489-3.097 16.769c-.765 3.59-1.8 7.022-2.547 9.305h34.546c-3.282-9.102-6.451-26.369-6.451-26.369" fill="#231917" transform="translate(27 67)"/><path d="m31.9678 33.5169c10.635-3.643 7.287-14.574 6.794-15.164-.492-.591.394-5.219.887-7.977.492-2.757.591-8.271-.887-8.862-1.477-.591-8.271 6.499-8.763 6.401-.493-.099-6.303-1.28-9.552-1.28-3.25 0-9.847 1.575-9.847 1.575-.689.197-4.924-4.726-6.598-6.597s-3.052-.394-3.84 4.431 1.772 11.521 2.068 12.309c.295.787-1.182 1.181-.689 6.794.492 5.613 7.582 8.173 7.582 8.173 1.048 13.63.27 21.682-.414 25.68h23.87c-1.378-9.067-.611-25.483-.611-25.483" fill="#fff" transform="translate(24 35)"/><path d="m44.701 61.969h-.31v-2.609h.31z" fill="#231917"/><path d="m44.5851 61.7417s-4.8 2.536-4.339 3.167 4.339-3.167 4.339-3.167" fill="#231917"/><path d="m44.6788 61.8156s3.859 3.817 4.323 3.188c.464-.628-4.323-3.188-4.323-3.188" fill="#231917"/><path d="m48.816 64.9697-4.242-2.989-3.997 2.889-.182-.251 4.176-3.019 4.424 3.116z" fill="#231917"/><path d="m44.561 60.0048s-2.988-.573-2.576-1.877c.324-1.027 2.56-.788 2.56-.788s2.364-.148 2.462.788c.098.929-1.264 1.483-2.446 1.877" fill="#f49187"/><path d="m62.5352 35.8493c-1.477-.591-8.403 7.156-8.895 7.057-.493-.098-5.944-1.272-9.193-1.272-3.25 0-9.847 1.576-9.847 1.576-.69.197-4.924-4.727-6.598-6.598s-3.053-.394-3.84 4.431c-.788 4.825 1.772 11.521 2.067 12.309.296.788-1.181 1.182-.689 6.795.087.985.379 1.874.798 2.674 1.156-.528 2.35-.736 3.215-1.213 5.101-1.451 7.954-3.566 9.162-4.65 1.415-1 2.192-2.666 2.58-4.984.999-5.955 4.429-7.034 5.318-2.659.945 4.655 1.614 7.399 4.33 8.506 1.877 1.164 5.214 2.861 9.73 3.685 0 0-.003-.002-.003-.003.739.192 1.532.274 2.394.363 1.336-4.021-.004-8.157-.302-8.514-.492-.591.394-5.219.886-7.976.493-2.757.364-8.936-1.113-9.527" fill="#231917"/><path d="m39.6217 52.9586c0 1.903-1.543 3.446-3.446 3.446-1.904 0-3.447-1.543-3.447-3.446s1.543-3.446 3.447-3.446c1.903 0 3.446 1.543 3.446 3.446" fill="#ebb744"/><path d="m38.8339 52.9586c0 1.468-1.19 2.659-2.659 2.659-1.468 0-2.658-1.191-2.658-2.659s1.19-2.659 2.658-2.659c1.469 0 2.659 1.191 2.659 2.659" fill="#231917"/><path d="m55.9678 52.9586c0 1.903-1.543 3.446-3.446 3.446-1.904 0-3.447-1.543-3.447-3.446s1.543-3.446 3.447-3.446c1.903 0 3.446 1.543 3.446 3.446" fill="#ebb744"/><path d="m55.18 52.9586c0 1.468-1.19 2.659-2.659 2.659-1.468 0-2.658-1.191-2.658-2.659s1.19-2.659 2.658-2.659c1.469 0 2.659 1.191 2.659 2.659" fill="#231917"/><path d="m55.6938 44.234s4.689-6.729 5.932-6.697c2.037.052.67 13.012-.574 11.672 0 0-3.732-4.21-5.358-4.975" fill="#f49187"/><path d="m32.982 44.4506s-5.275-6.263-6.358-6.164c-1.084.098-1.288 7.732-.601 10.183.558 1.993 1.174 2.551 1.568 2.058.394-.492 5.391-6.077 5.391-6.077" fill="#f49187"/><g fill="#fff"><path d="m49.0629 45.0328c-.004-.061-.403-6.107.768-10.589l.15.04c-1.164 4.456-.767 10.478-.763 10.538z"/><path d="m50.703 45.3388-.155-.012c.006-.077.652-7.733 5.906-12.695l.106.113c-5.209 4.92-5.851 12.518-5.857 12.594"/><path d="m38.7938 45.188-.155-.004c.001-.052.122-5.19-1.906-10.262l.144-.057c2.041 5.102 1.918 10.271 1.917 10.323"/><path d="m37.1862 45.29c-.012-.081-1.301-8.152-5.975-12.342l.103-.116c4.716 4.228 6.013 12.353 6.025 12.434z"/><path d="m50.8283 61.2383-.049-.147c.154-.052 15.52-5.131 24.679-3.919l-.021.154c-9.125-1.208-24.455 3.861-24.609 3.912"/><path d="m75.4487 64.2261c-9.285-3.192-22.186-1.775-22.315-1.761l-.017-.154c.129-.015 13.064-1.435 22.382 1.768z"/><path d="m52.8369 61.5537-.036-.151c.131-.031 13.23-3.111 23.199-.991l-.032.152c-9.934-2.113-23 .959-23.131.99"/><path d="m38.3666 61.2383c-.154-.051-15.486-5.121-24.609-3.912l-.021-.154c9.159-1.212 24.525 3.867 24.679 3.919z"/><path d="m13.7462 64.2261-.05-.147c9.318-3.203 22.253-1.783 22.382-1.768l-.017.154c-.13-.014-13.03-1.431-22.315 1.761"/><path d="m36.3499 61.618c-.138-.033-13.876-3.263-24.32-1.04l-.033-.152c10.479-2.23 24.251 1.008 24.389 1.041z"/></g></g></svg>
